X: 2
T: The Maid At The Well
R: jig
M: 6/8
L: 1/8
K: Gmaj
GED ~D3|GEG c2e|dBG GAB|AGE {G}EDE|GED ~D3|GEG c2e|dBG GAB|1 AGF G2D:|2 AGF G2d||gdB GBd|gdB c2e|dBG GAB|AGE ~E3|gdB GBd|gdB c2e|dBG GAB|AGF G2d|gdB GBd|gdB c2e|dBG GAB|AGE {G}EDE|GED ~D3|GEG c2e|dBG GAB|AGF G2D||GED {E}DB,D|GAB c2e|dBG {B}AGA|BAG EDE|GED {E}DB,D|GAB c2e|dBG {B}AGA|1 BGF G2D:|2 BGF GBd||gdd edd|gdB c2e|dBG {B}AGA|BAG ~E3|gdd edd|gdB c2e|dBG {B}AGA|BGF GBd|gdd edd|gdB c2e|dBG {B}AGA|BAG EDE|GED DB,D|GAB c2e|dBG {B}AGA|BGF G2D||


Tune 752	Setting 28260

